T: Peter Wyper's
M: 4/4
L: 1/8
K: Dmaj
A>G|F>DF>A d>AF>D|G>EF>D A,>CE>G|F>Ad<f a>fd>f|\F>DF>A d>AF>D|G>EF>D A,>CE>G|F>Ad>A B>GE>C|D2 D2 D2:|(3ded|cdef gecA|dfaA baf>a|agB>g gfAf|3efe (3dcB (3ABA (3GFE|F>DF>A d>AF>D|G>EF>D A,>CE>G|F>Ad>A B>GE>C|D2 D2 D2:|
